rospo-icon-theme-classic-common/32x32/apps/alc.svg

<svg height="32" viewBox="0 0 32 32" width="32" xmlns="http://www.w3.org/2000/svg"><circle cx="15.5" cy="27" opacity=".2" r="4"/><circle cx="15.5" cy="26" fill="#8e8e8e" r="4"/><path d="m3.9472656 3.0062962c-.1052165-.00884-.1997798-.00568-.2851562.00977-.1138352.020589-.2107771.061414-.2910156.125-.6567968.5204892-.4513964 2.5880154.6855468 6.8886722.63754 2.411589 1.1631351 3.694716 2.0683594 5.054687.5943921.892968.8815121 1.23293 1.8632812 2.203125.8792572.968632 1.988982 2.323094 2.0117188 3.462891-.2524832 2.250007-1.9000018 3.42847-2 5.34375 0 2.318938 1.0808171 3.90625 3.400391 3.90625 1.454932.145589 2.797003-1.737526 4.099609-2 1.302606.262474 2.644677 2.145589 4.099609 2 2.319574 0 3.400391-1.587312 3.400391-3.90625-.1-1.91528-1.747517-3.093743-2-5.34375.02274-1.139797 1.132461-2.494261 2.011719-3.462891.981769-.970195 1.268889-1.310157 1.863281-2.203125.905225-1.359971 1.430819-2.643099 2.068359-5.054687 1.136943-4.3006568 1.342344-6.368183.685547-6.8886722-.08024-.063587-.17718-.104411-.291015-.125-.08538-.01544-.179941-.018606-.285157-.00977-.31565.026526-.722292.1624088-1.230468.4101562-1.007787.4913269-1.993284 1.2161501-3.103516 2.2851563-1.66597 1.6040977-2.261169 2.5235897-4.222656 6.5156253-.585852 1.189415-1.304735 2.345884-2.183594 3.609375-.255398.175825-.8125.173828-.8125.173828s-.557102.002-.8125-.173828c-.878859-1.263491-1.597742-2.41996-2.183594-3.609375-1.961487-3.9920356-2.5566855-4.9115276-4.222656-6.5156253-1.1102314-1.0690062-2.0957291-1.7938294-3.1035156-2.2851563-.5081767-.2477474-.9148196-.3836304-1.2304688-.4101562z" opacity=".2"/><rect height="3" opacity=".2" rx=".375" width="1.5" x="14" y="27"/><rect fill="#fff" height="3" rx=".375" width="1.5" x="14" y="26"/><rect height="3" opacity=".2" rx=".375" width="1.5" x="15.5" y="27"/><rect fill="#fff" height="3" rx=".375" width="1.5" x="15.5" y="26"/><path d="m3.9472656 2.0058594c-.1052165-.0088419-.1997798-.0056761-.2851562.0097656-.1138352.0205888-.2107771.0614139-.2910156.125-.6567968.5204892-.4513964 2.5880154.6855468 6.8886719.63754 2.4115891 1.1631351 3.6947161 2.0683594 5.0546871.5943921.892968.8815121 1.23293 1.8632812 2.203125.8792572.968632 1.988982 2.323094 2.0117188 3.462891-.2524832 2.250007-1.9000018 3.42847-2 5.34375 0 2.318938 1.0808171 3.90625 3.400391 3.90625 1.454932.145589 2.797003-1.737526 4.099609-2 1.302606.262474 2.644677 2.145589 4.099609 2 2.319574 0 3.400391-1.587312 3.400391-3.90625-.099998-1.91528-1.747517-3.093743-2-5.34375.022737-1.139797 1.132461-2.494261 2.011719-3.462891.981769-.970195 1.268889-1.310157 1.863281-2.203125.905225-1.359971 1.430819-2.643099 2.068359-5.0546871 1.136943-4.3006565 1.342344-6.3681827.685547-6.8886719-.080238-.0635866-.17718-.104411-.291015-.125-.085376-.01544-.179941-.0186056-.285157-.0097656-.31565.0265258-.722292.1624088-1.230468.4101562-1.007787.4913269-1.993284 1.2161501-3.103516 2.2851563-1.66597 1.6040977-2.261169 2.5235897-4.222656 6.5156251-.585852 1.189415-1.304735 2.345884-2.183594 3.609375-.255398.175825-.8125.173828-.8125.173828s-.557102.001997-.8125-.173828c-.878859-1.263491-1.597742-2.41996-2.183594-3.609375-1.961487-3.9920354-2.5566855-4.9115274-4.222656-6.5156251-1.1102314-1.0690062-2.0957291-1.7938294-3.1035156-2.2851563-.5081767-.2477474-.9148196-.3836304-1.2304688-.4101562z" fill="#e4e4e4"/><path d="m4.4298602 3.6162122c.00214.1507423-.016574.206077.0041.4142478.096759.9742271.4165399 2.5254738.9761484 4.6428571.6203188 2.3470899 1.0626416 3.4100599 1.8812047 4.6401229h-.0014c.5695847.855934.7199719 1.030469 1.6829674 1.982374l.027341.02598.024612.02871c.4119058.4539.9174301.976895 1.3589513 1.591368.719436-.807007 1.616025-1.436397 2.619469-1.838823-.706588-1.141461-1.28408-2.308927-1.755427-3.266133v-.0014c-1.9494143-3.9685936-2.3435412-4.5883972-3.9373721-6.1234558-1.0402898-1.001937-1.9042314-1.6276277-2.7466136-2.0384275-.1162456-.0566854-.0409937-.0237618-.1339811-.0574205zm22.3393068.00684c-.0625.027227-.06335.016142-.133981.050585-.842383.4107998-1.706324 1.0364906-2.746614 2.0384276-1.593831 1.5350587-1.987958 2.1548623-3.937405 6.1234852v.0014c-.471568.957653-1.04975 2.125533-1.756794 3.2675 1.003936.402242 1.90101 1.031644 2.620835 1.838823.441669-.614869.946832-1.138615 1.358952-1.592735l.02461-.02871.02734-.02598c.962995-.951905 1.113382-1.126441 1.682967-1.982374h-.0014c.81853-1.230065 1.260886-2.293033 1.881205-4.6401228.559609-2.1173833.879389-3.6686301.976148-4.6428572.02036-.204736.0018-.2581524.0041-.4074121z" opacity=".3"/><path d="m15.499999 27c-1.609616-.09879-2.991843-1.532882-2.331057-2.23963.705097-.557318 1.590057-.766906 2.331057-.760215.741002-.0066 1.625962.202897 2.331059.760215.660786.706748-.721439 2.140845-2.331059 2.23963z" fill="#bf3667"/><path d="m12.326116 24.000167c-.950824 0-2.324187-.671573-2.324187-1.5s-.090014-1.5.86081-1.5c2.443994.253368 2.58243 3 1.463377 3z" opacity=".2"/><path d="m12.326116 22.99973c-.950824 0-2.324187-.671573-2.324187-1.5s-.090014-1.5.86081-1.5c2.443994.253368 2.58243 3 1.463377 3z" fill="#fff"/><circle cx="12.5" cy="22.5" fill="#323232" r=".5"/><path d="m18.673884 24.000167c.950824 0 2.324187-.671573 2.324187-1.5s.09001-1.5-.86081-1.5c-2.443994.253368-2.58243 3-1.463377 3z" opacity=".2"/><path d="m18.673884 22.99973c.950824 0 2.324187-.671573 2.324187-1.5s.09001-1.5-.86081-1.5c-2.443994.253368-2.58243 3-1.463377 3z" fill="#fff"/><circle cx="-18.5" cy="22.5" fill="#323232" r=".5" transform="scale(-1 1)"/><path d="m3.9472656 2.0058594c-.1052165-.0088419-.1997798-.0056761-.2851562.0097656-.1138352.0205888-.2107771.0614139-.2910156.125-.3073463.2435615-.4172019.8425964-.3398438 1.8339844.0464356-.408912.1544391-.6948713.3398438-.8417969.0802384-.063586.1771804-.104411.2910156-.125.0853764-.01545.1799397-.0186056.2851562-.0097656.3156492.0265258.7222921.1624088 1.2304688.4101562 1.0077865.4913269 1.9932842 1.2161501 3.1035156 2.2851563 1.6659705 1.6040977 2.261169 2.5235936 4.222656 6.5156246.585852 1.189415 1.304735 2.345884 2.183594 3.609375.255398.175828.8125.173829.8125.173829s.557102.001996.8125-.173829c.878859-1.263491 1.597742-2.41996 2.183594-3.609375 1.961487-3.9920354 2.556686-4.9115269 4.222656-6.5156246 1.110232-1.0690062 2.095729-1.7938294 3.103516-2.2851563.508176-.2477474.914818-.3836302 1.230468-.4101562.105216-.008836.199777-.0056744.285157.0097656.113835.020589.210775.061413.291015.125.185405.1469269.293408.4328843.339844.8417969.077358-.991388-.032497-1.5904229-.339844-1.8339844-.080238-.0635866-.17718-.104411-.291015-.125-.085376-.01544-.179941-.0186056-.285157-.0097656-.31565.0265258-.722292.1624088-1.230468.4101562-1.007787.4913269-1.993284 1.2161501-3.103516 2.2851563-1.66597 1.6040977-2.261169 2.5235896-4.222656 6.5156251-.585852 1.189415-1.304735 2.345884-2.183594 3.609375-.255398.175825-.8125.173828-.8125.173828s-.557102.001997-.8125-.173828c-.878859-1.263491-1.597742-2.41996-2.183594-3.609375-1.961487-3.9920355-2.5566855-4.9115274-4.222656-6.5156251-1.1102314-1.0690062-2.0957291-1.7938294-3.1035156-2.2851563-.5081767-.2477474-.9148196-.3836304-1.2304688-.4101562zm5.9648438 18.2011716c-.4059954 1.954772-1.8192784 3.108714-1.9121094 4.886719 0 .245741.0185059.478741.0429688.707031.2394637-1.748144 1.7176386-2.925244 1.9570312-5.058593-.0034684-.17387-.0385109-.353428-.0878906-.535157zm11.1757816 0c-.04938.181729-.084422.361287-.087891.535157.239392 2.133349 1.717566 3.310449 1.957031 5.058593.024463-.22829.042969-.46129.042969-.707031-.092831-1.778005-1.506114-2.931947-1.912109-4.886719z" fill="#fff" opacity=".2"/></svg>

<svg xmlns="http://www.w3.org/2000/svg" width="32" height="32" version="1.1" viewBox="0 0 32 32">
 <circle style="opacity:0.2" cx="15.5" cy="27" r="4"/>
 <circle style="fill:#8e8e8e" cx="15.5" cy="26" r="4"/>
 <path style="opacity:0.2" d="m 3.9472656,3.0062962 c -0.1052165,-0.00884 -0.1997798,-0.00568 -0.2851562,0.00977 -0.1138352,0.020589 -0.2107771,0.061414 -0.2910156,0.125 -0.6567968,0.5204892 -0.4513964,2.5880154 0.6855468,6.8886722 0.63754,2.411589 1.1631351,3.694716 2.0683594,5.054687 0.5943921,0.892968 0.8815121,1.23293 1.8632812,2.203125 0.8792572,0.968632 1.988982,2.323094 2.0117188,3.462891 -0.2524832,2.250007 -1.9000018,3.42847 -2,5.34375 0,2.318938 1.0808171,3.90625 3.400391,3.90625 1.454932,0.145589 2.797003,-1.737526 4.099609,-2 1.302606,0.262474 2.644677,2.145589 4.099609,2 2.319574,0 3.400391,-1.587312 3.400391,-3.90625 -0.1,-1.91528 -1.747517,-3.093743 -2,-5.34375 0.02274,-1.139797 1.132461,-2.494261 2.011719,-3.462891 0.981769,-0.970195 1.268889,-1.310157 1.863281,-2.203125 0.905225,-1.359971 1.430819,-2.643099 2.068359,-5.054687 1.136943,-4.3006568 1.342344,-6.368183 0.685547,-6.8886722 -0.08024,-0.063587 -0.17718,-0.104411 -0.291015,-0.125 -0.08538,-0.01544 -0.179941,-0.018606 -0.285157,-0.00977 -0.31565,0.026526 -0.722292,0.1624088 -1.230468,0.4101562 -1.007787,0.4913269 -1.993284,1.2161501 -3.103516,2.2851563 -1.66597,1.6040977 -2.261169,2.5235897 -4.222656,6.5156253 -0.585852,1.189415 -1.304735,2.345884 -2.183594,3.609375 -0.255398,0.175825 -0.8125,0.173828 -0.8125,0.173828 0,0 -0.557102,0.002 -0.8125,-0.173828 -0.878859,-1.263491 -1.597742,-2.41996 -2.183594,-3.609375 C 10.542419,8.2251984 9.9472205,7.3057064 8.28125,5.7016087 7.1710186,4.6326025 6.1855209,3.9077793 5.1777344,3.4164524 4.6695577,3.168705 4.2629148,3.032822 3.9472656,3.0062962 Z"/>
 <rect style="opacity:0.2" width="1.5" height="3" x="14" y="27" rx=".375" ry=".375"/>
 <rect style="fill:#ffffff" width="1.5" height="3" x="14" y="26" rx=".375" ry=".375"/>
 <rect style="opacity:0.2" width="1.5" height="3" x="15.5" y="27" rx=".375" ry=".375"/>
 <rect style="fill:#ffffff" width="1.5" height="3" x="15.5" y="26" rx=".375" ry=".375"/>
 <path style="fill:#cccccc" d="M 3.9472656 2.0058594 C 3.8420491 1.9970175 3.7474858 2.0001833 3.6621094 2.015625 C 3.5482742 2.0362138 3.4513323 2.0770389 3.3710938 2.140625 C 2.714297 2.6611142 2.9196974 4.7286404 4.0566406 9.0292969 C 4.6941806 11.440886 5.2197757 12.724013 6.125 14.083984 C 6.7193921 14.976952 7.0065121 15.316914 7.9882812 16.287109 C 8.8675384 17.255741 9.9772632 18.610203 10 19.75 C 9.7475168 22.000007 8.0999982 23.17847 8 25.09375 C 8 27.412688 9.0808171 29 11.400391 29 C 12.855323 29.145589 14.197394 27.262474 15.5 27 C 16.802606 27.262474 18.144677 29.145589 19.599609 29 C 21.919183 29 23 27.412688 23 25.09375 C 22.900002 23.17847 21.252483 22.000007 21 19.75 C 21.022737 18.610203 22.132461 17.255739 23.011719 16.287109 C 23.993488 15.316914 24.280608 14.976952 24.875 14.083984 C 25.780225 12.724013 26.305819 11.440885 26.943359 9.0292969 C 28.080302 4.7286404 28.285703 2.6611142 27.628906 2.140625 C 27.548668 2.0770384 27.451726 2.036214 27.337891 2.015625 C 27.252515 2.000185 27.15795 1.9970194 27.052734 2.0058594 C 26.737084 2.0323852 26.330442 2.1682682 25.822266 2.4160156 C 24.814479 2.9073425 23.828982 3.6321657 22.71875 4.7011719 C 21.05278 6.3052696 20.457581 7.2247616 18.496094 11.216797 C 17.910242 12.406212 17.191359 13.562681 16.3125 14.826172 C 16.057102 15.001997 15.5 15 15.5 15 C 15.5 15 14.942898 15.001997 14.6875 14.826172 C 13.808641 13.562681 13.089758 12.406212 12.503906 11.216797 C 10.542419 7.2247616 9.9472205 6.3052696 8.28125 4.7011719 C 7.1710186 3.6321657 6.1855209 2.9073425 5.1777344 2.4160156 C 4.6695577 2.1682682 4.2629148 2.0323852 3.9472656 2.0058594 z"/>
 <path style="opacity:0.3" d="m 4.4298602,3.6162122 c 0.00214,0.1507423 -0.016574,0.206077 0.0041,0.4142478 0.096759,0.9742271 0.4165399,2.5254738 0.9761484,4.6428571 0.6203188,2.3470899 1.0626416,3.4100599 1.8812047,4.6401229 h -0.0014 c 0.5695847,0.855934 0.7199719,1.030469 1.6829674,1.982374 l 0.027341,0.02598 0.024612,0.02871 c 0.4119058,0.4539 0.9174301,0.976895 1.3589513,1.591368 0.719436,-0.807007 1.616025,-1.436397 2.619469,-1.838823 -0.706588,-1.141461 -1.28408,-2.308927 -1.755427,-3.266133 v -0.0014 C 9.2984127,7.8669224 8.9042858,7.2471188 7.3104549,5.7120602 6.2701651,4.7101232 5.4062235,4.0844325 4.5638413,3.6736327 4.4475957,3.6169473 4.5228476,3.6498709 4.4298602,3.6162122 Z m 22.3393068,0.00684 c -0.0625,0.027227 -0.06335,0.016142 -0.133981,0.050585 -0.842383,0.4107998 -1.706324,1.0364906 -2.746614,2.0384276 -1.593831,1.5350587 -1.987958,2.1548623 -3.937405,6.1234852 v 0.0014 c -0.471568,0.957653 -1.04975,2.125533 -1.756794,3.2675 1.003936,0.402242 1.90101,1.031644 2.620835,1.838823 0.441669,-0.614869 0.946832,-1.138615 1.358952,-1.592735 l 0.02461,-0.02871 0.02734,-0.02598 c 0.962995,-0.951905 1.113382,-1.126441 1.682967,-1.982374 h -0.0014 c 0.81853,-1.230065 1.260886,-2.293033 1.881205,-4.6401228 0.559609,-2.1173833 0.879389,-3.6686301 0.976148,-4.6428572 0.02036,-0.204736 0.0018,-0.2581524 0.0041,-0.4074121 z"/>
 <path style="fill:#bf3667" d="m 15.499999,27 c -1.609616,-0.09879 -2.991843,-1.532882 -2.331057,-2.23963 0.705097,-0.557318 1.590057,-0.766906 2.331057,-0.760215 0.741002,-0.0066 1.625962,0.202897 2.331059,0.760215 0.660786,0.706748 -0.721439,2.140845 -2.331059,2.23963 z"/>
 <path style="opacity:0.2" d="m 12.326116,24.000167 c -0.950824,0 -2.324187,-0.671573 -2.324187,-1.5 0,-0.828427 -0.090014,-1.5 0.86081,-1.5 2.443994,0.253368 2.58243,3 1.463377,3 z"/>
 <path style="fill:#ffffff" d="m 12.326116,22.99973 c -0.950824,0 -2.324187,-0.671573 -2.324187,-1.5 0,-0.828427 -0.090014,-1.5 0.86081,-1.5 2.443994,0.253368 2.58243,3 1.463377,3 z"/>
 <circle style="fill:#323232" cx="12.5" cy="22.5" r=".5"/>
 <path style="opacity:0.2" d="m 18.673884,24.000167 c 0.950824,0 2.324187,-0.671573 2.324187,-1.5 0,-0.828427 0.09001,-1.5 -0.86081,-1.5 -2.443994,0.253368 -2.58243,3 -1.463377,3 z"/>
 <path style="fill:#ffffff" d="m 18.673884,22.99973 c 0.950824,0 2.324187,-0.671573 2.324187,-1.5 0,-0.828427 0.09001,-1.5 -0.86081,-1.5 -2.443994,0.253368 -2.58243,3 -1.463377,3 z"/>
 <circle style="fill:#323232" cx="-18.5" cy="22.5" r=".5" transform="scale(-1,1)"/>
 <path style="opacity:0.2;fill:#ffffff" d="M 3.9472656 2.0058594 C 3.8420491 1.9970175 3.7474858 2.0001833 3.6621094 2.015625 C 3.5482742 2.0362138 3.4513323 2.0770389 3.3710938 2.140625 C 3.0637475 2.3841865 2.9538919 2.9832214 3.03125 3.9746094 C 3.0776856 3.5656974 3.1856891 3.2797381 3.3710938 3.1328125 C 3.4513322 3.0692265 3.5482742 3.0284015 3.6621094 3.0078125 C 3.7474858 2.9923625 3.8420491 2.9892069 3.9472656 2.9980469 C 4.2629148 3.0245727 4.6695577 3.1604557 5.1777344 3.4082031 C 6.1855209 3.89953 7.1710186 4.6243532 8.28125 5.6933594 C 9.9472205 7.2974571 10.542419 8.216953 12.503906 12.208984 C 13.089758 13.398399 13.808641 14.554868 14.6875 15.818359 C 14.942898 15.994187 15.5 15.992188 15.5 15.992188 C 15.5 15.992188 16.057102 15.994184 16.3125 15.818359 C 17.191359 14.554868 17.910242 13.398399 18.496094 12.208984 C 20.457581 8.2169486 21.05278 7.2974571 22.71875 5.6933594 C 23.828982 4.6243532 24.814479 3.89953 25.822266 3.4082031 C 26.330442 3.1604557 26.737084 3.0245729 27.052734 2.9980469 C 27.15795 2.9892109 27.252511 2.9923725 27.337891 3.0078125 C 27.451726 3.0284015 27.548666 3.0692255 27.628906 3.1328125 C 27.814311 3.2797394 27.922314 3.5656968 27.96875 3.9746094 C 28.046108 2.9832214 27.936253 2.3841865 27.628906 2.140625 C 27.548668 2.0770384 27.451726 2.036214 27.337891 2.015625 C 27.252515 2.000185 27.15795 1.9970194 27.052734 2.0058594 C 26.737084 2.0323852 26.330442 2.1682682 25.822266 2.4160156 C 24.814479 2.9073425 23.828982 3.6321657 22.71875 4.7011719 C 21.05278 6.3052696 20.457581 7.2247615 18.496094 11.216797 C 17.910242 12.406212 17.191359 13.562681 16.3125 14.826172 C 16.057102 15.001997 15.5 15 15.5 15 C 15.5 15 14.942898 15.001997 14.6875 14.826172 C 13.808641 13.562681 13.089758 12.406212 12.503906 11.216797 C 10.542419 7.2247615 9.9472205 6.3052696 8.28125 4.7011719 C 7.1710186 3.6321657 6.1855209 2.9073425 5.1777344 2.4160156 C 4.6695577 2.1682682 4.2629148 2.0323852 3.9472656 2.0058594 z M 9.9121094 20.207031 C 9.506114 22.161803 8.092831 23.315745 8 25.09375 C 8 25.339491 8.0185059 25.572491 8.0429688 25.800781 C 8.2824325 24.052637 9.7606074 22.875537 10 20.742188 C 9.9965316 20.568318 9.9614891 20.38876 9.9121094 20.207031 z M 21.087891 20.207031 C 21.038511 20.38876 21.003469 20.568318 21 20.742188 C 21.239392 22.875537 22.717566 24.052637 22.957031 25.800781 C 22.981494 25.572491 23 25.339491 23 25.09375 C 22.907169 23.315745 21.493886 22.161803 21.087891 20.207031 z"/>
</svg>
